X:1
T:St. John (Dykes), 66.64.884
T:St. John (Dykes), 66.64.884
T:John Bacchus Dykes, 1864
T:Public Domain Courtesy of the Cyber Hymnal™
C:John Bacchus Dykes, 1864
Z:Public Domain
Z:Courtesy of the Cyber Hymnal™
%%score ( 1 2 ) ( 3 4 )
L:1/8
Q:1/4=115
M:3/2
K:F
V:1 treble 
V:2 treble 
V:3 bass 
V:4 bass 
V:1
 D2 | [DA]3 [EG] [DF]2 [^CE]2 | D4 ||[M:3/2] [Fd]2 [Fc]2 [Fd]2 | [DB]4 [EB]2 | [FA]6 | %6
 [Fd]2 [Fc]2 [Fd]2 | [EB]4 [DB]2 | [DA]6 | E2 [DF]2 D2 x4 | A6 ||[K:D] [DA]2 [FA]2 [GB]2 | %12
 [FA]4 [DF]2 | G4 [CA]2 | [DF]6 | [FA]2 [FA]2 [GB]2 | [FA]4 [DF]2 | [EG]4 [EA]2 | [DF]4 [DE]2 | %19
 [DE]6 | [CE]6 | D6 |] %22
V:2
 D2 | x8 | D4 ||[M:3/2] x6 | x6 | x6 | x6 | x6 | x6 | E2 D2 x6 | (D2 ^C4) ||[K:D] x6 | x6 | %13
 (E2 D2) x2 | x6 | x6 | x6 | x6 | x6 | x6 | x6 | D6 |] %22
V:3
 [F,A,]2 | [F,A,]3 [G,B,] A,2 [A,,A,]2 | [D,F,]4 ||[M:3/2] [D,A,]2 [F,A,]2 [D,A,]2 | %4
 [G,B,]4 [G,B,]2 | [D,D]6 | [D,A,]2 [F,A,]2 [D,A,]2 | [G,B,]4 G,2 | [F,A,]6 | [^C,A,]2 A,6 (A,G,) | %10
 (F,2 E,4) ||[K:D] [D,F,]2 [D,A,]2 (G,B,) | [D,D]4 [D,A,]2 | [A,,A,]4 [A,,A,]2 | [D,A,]6 | %15
 [D,A,]2 [D,D]2 (B,C) | [D,D]4 [A,D]2 | (D2 CB,) [A,,C]2 | D4 [G,,B,]2 | [A,,E,]6 | (A,4 G,2) | %21
 [D,F,]6 |] %22
V:4
 x2 | x4 A,2 x2 | x4 ||[M:3/2] x6 | x6 | x6 | x6 | x4 G,2 | x6 | x2 D,2 B,,2 x4 | A,,6 || %11
[K:D] x4 D,2 | x6 | x6 | x6 | x4 D,2 | x6 | A,,4 x2 | (D,2 B,,2) x2 | x6 | A,,6 | x6 |] %22

